X: 2
M: 2/4
L: 1/16
K: G
|:\
|:\
d4 g2d2 | c2B2A2c2 | {c}B2AG F2G2 | A2B2 dcBA |
d4 g2d2 | egfa g2d2 | c2A2G2F2 | G4 G4 :|


